assets/icons/profile-icon.svg

<svg width="24" height="24" viewBox="0 0 24 24" fill="none" xmlns="http://www.w3.org/2000/svg">
<path d="M24 12C24 5.3833 18.6172 0 12 0C5.38281 0 0 5.3833 0 12C0 15.3836 1.41321 18.4387 3.67365 20.6223C3.72656 20.6912 3.78925 20.747 3.86261 20.7941C6.00385 22.7769 8.85828 24 12 24C15.1417 24 17.9962 22.7769 20.1374 20.7941C20.2108 20.747 20.2734 20.6912 20.3264 20.6223C22.5868 18.4387 24 15.3836 24 12ZM12 1.5C17.79 1.5 22.5 6.21045 22.5 12C22.5 14.455 21.6467 16.7108 20.2297 18.5009C19.5792 16.403 17.7221 14.7607 15.2016 14.0051C16.5752 13.011 17.4736 11.4005 17.4736 9.58057C17.4736 6.56641 15.0186 4.11426 12 4.11426C8.98145 4.11426 6.52637 6.56641 6.52637 9.58057C6.52637 11.4005 7.42481 13.011 8.7984 14.0051C6.27789 14.7607 4.42078 16.403 3.77026 18.5009C2.35327 16.7108 1.5 14.455 1.5 12C1.5 6.21045 6.20996 1.5 12 1.5ZM8.02637 9.58057C8.02637 7.39355 9.80859 5.61426 12 5.61426C14.1914 5.61426 15.9736 7.39355 15.9736 9.58057C15.9736 11.7676 14.1914 13.5469 12 13.5469C9.80859 13.5469 8.02637 11.7676 8.02637 9.58057ZM5.03076 19.832C5.25623 17.082 8.17236 15.0469 12 15.0469C15.8276 15.0469 18.7438 17.082 18.9692 19.832C17.1131 21.4855 14.6757 22.5 12 22.5C9.32428 22.5 6.8869 21.4855 5.03076 19.832Z" fill="white"/>
</svg>

<svg width="24" height="24" fill="none" xmlns="http://www.w3.org/2000/svg"><path d="M24 12c0-6.617-5.383-12-12-12S0 5.383 0 12c0 3.384 1.413 6.439 3.674 8.622a.733.733 0 0 0 .189.172C6.003 22.777 8.858 24 12 24c3.142 0 5.996-1.223 8.137-3.206a.734.734 0 0 0 .19-.172A11.958 11.958 0 0 0 24 12zM12 1.5c5.79 0 10.5 4.71 10.5 10.5 0 2.455-.853 4.71-2.27 6.5-.65-2.097-2.508-3.74-5.028-4.495a5.455 5.455 0 0 0 2.272-4.424A5.476 5.476 0 0 0 12 4.114a5.476 5.476 0 0 0-5.474 5.467c0 1.82.899 3.43 2.272 4.424-2.52.756-4.377 2.398-5.028 4.496A10.44 10.44 0 0 1 1.5 12C1.5 6.21 6.21 1.5 12 1.5zM8.026 9.58a3.974 3.974 0 0 1 7.948 0 3.974 3.974 0 0 1-7.948 0zM5.031 19.833c.225-2.75 3.141-4.785 6.969-4.785 3.828 0 6.744 2.035 6.97 4.785A10.445 10.445 0 0 1 12 22.5a10.445 10.445 0 0 1-6.97-2.668z" fill="#fff"/></svg>
